X: 10031
Q: "With spirit."
M: C
L: 1/16
K: F
(dc).B.A (gf).e.d cfaf c2Ac | B2gB (BA)fA A2G2 G2FA |\
cfag (fe).d.c (cB).A.B G2AB | Afef (GA).B.c A2F2F2 |]
c2 |\
f2Tf2 a3f {a}g3e c2c2 | dgbd (dc).B.A A2G2 G2e2 |\
f2af gece dgbd (dc).B.A | (cB).A.B (GA).B.c A2F2F2 |]


